X:1
T:Title
%%score ( 1 2 ) { 3 | 4 }
L:1/8
M:3/4
K:C
V:1 treble nm="Grand Piano, Staff"
V:2 treble 
V:3 bass nm="Choir Pad, Habakkuk, 88.6 D"
V:4 bass 
V:1
 [EG]2 G2 c2 | c-[Fc] c2 B2 | [FA]2 G3 A | [DF]2 [CE]4 | [EG]2 A3 B | [Gc][Fd] e2 c2 | [Ec]2 c3 B | %7
w: By~Edward~Hodges * *|||||||
 [^FA]2 [EB]4 | E2 c3 B | A-[FA] A3 B | [E^G]2 [EA]4 | [EG]2 G3 A | [FG]2 G3 A | [EG]2 G3 A | %14
w: |||||||
 [FG]2 [EG]4 | [EG]2 [CG]3 [EA] | [FG]2 e3 d | [Gc]2 c-[Fc-] cB | [^FA]2 [Gd]4 | G2 [Ge]3 [Fd] | %20
w: ||||||
 [Ec]2 [Ec]3 [Fd] | [DB]2 [Ec]4- | [Ec]4 z2 |] %23
w: |||
V:2
 z2 E4 | .G2 E4 | z2 E4 | x6 | z2 F4 | z2 E4 | z2 E4 | x6 | z2 E4 | .E2 E4 | x6 | z2 F4 | z2 E4 | %13
 z2 F4 | x6 | x6 | z2 E2 F2 | z2 .G2 E2 | x6 | x6 | x6 | x6 | x6 |] %23
V:3
 C2 C2 G,2 | E,F, G,4 | A,B,[K:treble] C4 | B,2 C4 | C2 C3 D | CB, C4 | C2[K:bass] A,4 | A,2 ^G,4 | %8
 ^G,2 A,3 G, | A,B,[K:treble] C3 D | B,2 C4 | C2 B,4 | B,2 C4 | C2 D4 | B,2 C4 | C2 C4 | %16
 D2 C2 B,2 | C2 C4 | C2[K:bass] B,4 | B,2 C3 B, | C2 z2 z2 | G,2 G,4- | G,4 z2 |] %23
V:4
 C,2 C,4 | C,2 C,4 | C,2 C,2 E,2 | G,2 C,4 | C,2 F,4 | E,D, C,4 | E,2 z2 z2 | z2 E,4 | %8
 E,2 A,,3 B,, | C,D, E,4 | E,2 A,,4 | C,2 D,4 | D,2 C,4 | C,2 B,,4 | G,,2 C,4 | C,2 E,2 C,2 | %16
 B,,2 C,2 D,2 | E,2 A,4 | A,2 G,4 | G,2 C,3 D, | E,F, G,4 | G,,2 C,4- | C,4 z2 |] %23

